X: 4
M:6/8
L:1/8
K:D
"Andante"FAA GAA|FAA GFD|FAA GAA|GFD FED|
dFF AFF|dFF GFD|dFF AFF|GFD FED|
dFF AFF|dFF GFD|DD/2E/2F/2D/2 EAG|EDD EDD||
faa gaa|faa gfd|faa gaa|gfd fed|
faa gaa|faa gfd|dd/2e/2f/2d/2 eag|edd edd||

